!!!SOCIAL_FUNCTION:	songs of dances presented at makah day celebrations
!!!PDT:	1939
!!!OTL: No_58_Young_Doctor's_Canoe_Song_(b).krn
!!!LANG: Non-Tone
!!!LING_GROUP: Wakashan
!!!REG: Pacific Northwest
**kern
*staff1
=1-
*clefF4
*k[b-e-]
*M2/4
4r
8r
16r
16d\
=2!|:
2d\
=3
16d\LK
[8.c#\J
8c#\]
16r
16d\
=4||
*M2/4
2d\
=5||
*M3/4
16d\LK
8.B-\J
8B-\
8r
8d\L
8d\J
=6||
*M2/4
16c#\LK
8B-\
16cn\Jk
8B-\L
16.G\L
32B-\JJk
=7
2B-\
=8||
*M3/4
16B-\LK
[8.G\J
8G\]
8r
8B-\L
8B-\J
=9||
*M2/4
8.G\L
16A\Jk
8G\L
16E-\Jk
16r
=10
4.G\
16D\
16r
=11
*M3/4
8G\L
8G\J
8A\
8r
8G\L
16.G\L
32d\JJk
==:|!
*-
